resources/svg/border-left.svg

<svg xmlns="http://www.w3.org/2000/svg" viewBox="0 0 15 15" fill="currentColor"><path fill-rule="evenodd" clip-rule="evenodd" d="M1 14V1h1v13H1zM5 2H4V1h1v1zm3 0H7V1h1v1zm3 0h-1V1h1v1zm3 0h-1V1h1v1zM8 5H7V4h1v1zm6 0h-1V4h1v1zM5 8H4V7h1v1zm3 0H7V7h1v1zm3 0h-1V7h1v1zm3 0h-1V7h1v1zm-6 3H7v-1h1v1zm6 0h-1v-1h1v1zm-9 3H4v-1h1v1zm3 0H7v-1h1v1zm3 0h-1v-1h1v1zm3 0h-1v-1h1v1z" fill="currentColor"/></svg>

<svg xmlns="http://www.w3.org/2000/svg" viewBox="0 0 15 15" fill="currentColor"><path fill-rule="evenodd" clip-rule="evenodd" d="M1 14V1H2V14H1ZM5 2H4V1H5V2ZM8 2H7V1H8V2ZM11 2H10V1H11V2ZM14 2H13V1H14V2ZM8 5H7V4H8V5ZM14 5H13V4H14V5ZM5 8H4V7H5V8ZM8 8H7V7H8V8ZM11 8H10V7H11V8ZM14 8H13V7H14V8ZM8 11H7V10H8V11ZM14 11H13V10H14V11ZM5 14H4V13H5V14ZM8 14H7V13H8V14ZM11 14H10V13H11V14ZM14 14H13V13H14V14Z" fill="black"/></svg>
